X:1134
T:Hott Mutton Pyes.
M:9/8
L:1/8
Q:3/8=112 "Allegro"
I: :: ::
Z:Jack Campin * www.campin.me.uk * 2009
K:A Minor
e|c>BA AE^G A2c|B>AG GBc  d2e/d/|c>BA AE^G A2c/c/|B>cd dec B2:|
G|cde  ece  e2c|cde  e^fg d2B   |cde  ece  e2e   |ddd  dec B2e|c>BA AE^G A2:|
<end>
<start>
